packages/core/src/svgs/tokens/branded/PRO.svg

<svg width="24" height="24" viewBox="0 0 24 24" fill="none" xmlns="http://www.w3.org/2000/svg">
<path d="M19.3333 18.614C19.3333 19.002 18.9613 19.3327 18.5726 19.3327H7.68934C7.49172 19.3286 7.3035 19.2476 7.16487 19.1067C7.02624 18.9659 6.94816 18.7764 6.94734 18.5787V18.332C6.94734 18.2967 6.98267 17.8026 7.30067 17.2034C7.83066 16.216 8.82 15.5101 10.2333 15.0166C12.2626 14.3414 14.7553 13.9287 16.4166 12.4773C17.6187 11.4547 17.9647 9.8553 18 8.30404C18.6134 8.74403 19.3333 9.18937 19.3333 10.044V18.614ZM15.3353 8.30404C15.3353 9.08003 15.322 9.90337 14.756 10.4321C13.412 11.6706 11.0893 11.9581 9.42064 12.5127C6.84067 13.3593 5.56866 14.8407 4.968 15.9333C4.86201 16.1454 4.756 16.3568 4.68533 16.5688C4.68533 16.6041 4.66666 16.6041 4.66666 16.6388V10.0793C4.66666 9.30337 5.25066 8.84537 5.35667 8.7747L11.2934 4.89536C11.9646 4.43669 12.6713 4.89536 12.6713 4.89536L15.3353 6.6467V8.30404ZM22 18.4728V10.0793C22 9.69135 21.894 7.75203 20.0921 6.5527L18.6667 5.55269V2.63937C18.6667 2.21602 18.2546 2.00004 17.8661 2.00004H16.7867C16.3626 2.00004 16 2.21602 16 2.63937V3.7907L14.1906 2.63937C13.0953 1.93403 11.364 1.65136 9.84407 2.63937L3.908 6.5187C3.55467 6.73003 2 7.89404 2 10.0454V18.4387C2 19.2493 2.17666 19.9194 2.56534 20.4833C2.848 20.9421 3.27199 21.2947 3.76666 21.5414C4.65 21.9647 5.498 22 5.53334 22H18.502C18.5373 22 19.3854 22 20.2686 21.5414C20.7986 21.2947 21.1873 20.9421 21.5053 20.4833C21.8234 19.9548 22 19.284 22 18.4728Z" fill="#38A6FA"/>
</svg>

<svg xmlns="http://www.w3.org/2000/svg" width="24" height="24" fill="none" viewBox="0 0 24 24">
    <path fill="#38A6FA" d="M19.333 18.614c0 .388-.372.719-.76.719H7.689a.76.76 0 0 1-.742-.754v-.247c0-.035.036-.53.354-1.129.53-.987 1.519-1.693 2.932-2.186 2.03-.676 4.522-1.088 6.184-2.54 1.202-1.022 1.548-2.622 1.583-4.173.613.44 1.333.885 1.333 1.74zm-3.998-10.31c0 .776-.013 1.6-.579 2.128-1.344 1.239-3.667 1.526-5.335 2.08-2.58.847-3.852 2.329-4.453 3.421-.106.212-.212.424-.283.636 0 .035-.018.035-.018.07v-6.56c0-.776.584-1.234.69-1.304l5.936-3.88c.672-.458 1.378 0 1.378 0l2.664 1.752zM22 18.473v-8.394c0-.388-.106-2.327-1.908-3.526l-1.425-1V2.639c0-.423-.412-.639-.8-.639h-1.08c-.424 0-.787.216-.787.64v1.15l-1.81-1.15c-1.095-.706-2.826-.989-4.346 0L3.908 6.518C3.555 6.73 2 7.894 2 10.045v8.394c0 .81.177 1.48.565 2.044.283.46.707.812 1.202 1.058A4.9 4.9 0 0 0 5.533 22h12.969c.035 0 .883 0 1.767-.459a3 3 0 0 0 1.236-1.058c.318-.528.495-1.199.495-2.01"/>
</svg>
